public/images/mulberry-symbols/through.svg

<svg xmlns="http://www.w3.org/2000/svg" width="850.89" height="850.89" viewBox="0 0 850.89 850.89" overflow="visible"><path d="M600.31 424.21c0 .09 0 .19-.01.28h-14.28v-14.57c7.89 0 14.29 6.39 14.29 14.29zM586.02 424.49h14.28c-.14 7.76-6.479 14.01-14.28 14.01v-14.01z" fill="#444041"/><path d="M586.02 230.21c7.891 0 14.29 6.4 14.29 14.3 0 7.89-6.399 14.29-14.29 14.29v-14.3h-14.29c.01-7.9 6.4-14.29 14.29-14.29zM586.02 260.16c7.891 0 14.29 6.4 14.29 14.3 0 7.89-6.399 14.29-14.29 14.29v-28.59zM586.02 290.11c7.891 0 14.29 6.4 14.29 14.3 0 7.89-6.399 14.29-14.29 14.29v-28.59zM586.02 320.06c7.891 0 14.29 6.4 14.29 14.3 0 7.89-6.399 14.29-14.29 14.29v-28.59zM586.02 350.01c7.891 0 14.29 6.4 14.29 14.3 0 7.89-6.399 14.29-14.29 14.29v-28.59zM586.02 469.82c7.891 0 14.29 6.39 14.29 14.29 0 7.89-6.399 14.29-14.29 14.29v-28.58zM586.02 499.77c7.891 0 14.29 6.4 14.29 14.29 0 7.9-6.399 14.29-14.29 14.29v-28.58zM586.02 529.72c7.891 0 14.29 6.4 14.29 14.29 0 7.9-6.399 14.29-14.29 14.29v-28.58zM586.02 559.67c7.891 0 14.29 6.4 14.29 14.29 0 7.9-6.399 14.29-14.29 14.29v-28.58zM586.02 589.62c7.891 0 14.29 6.399 14.29 14.29 0 7.899-6.399 14.29-14.29 14.29-7.899 0-14.289-6.391-14.289-14.29h14.289v-14.29z" fill="#394ea1"/><path d="M586.02 589.62v14.29h-14.29c0-7.89 6.39-14.29 14.29-14.29zM586.02 559.67v28.58c-7.89 0-14.289-6.39-14.289-14.29-.001-7.89 6.399-14.29 14.289-14.29zM586.02 529.72v28.58c-7.89 0-14.289-6.39-14.289-14.29-.001-7.89 6.399-14.29 14.289-14.29zM586.02 499.77v28.58c-7.89 0-14.289-6.39-14.289-14.29-.001-7.89 6.399-14.29 14.289-14.29zM586.02 469.82v28.58c-7.89 0-14.289-6.4-14.289-14.29-.001-7.9 6.399-14.29 14.289-14.29z" fill="#394ea1"/><path d="M586.02 424.49v14.01c-7.8 0-14.14-6.25-14.279-14.01h14.279zM586.02 409.92v14.57h-14.28c-.01-.09-.01-.19-.01-.28 0-7.9 6.4-14.29 14.29-14.29z" fill="#444041"/><path d="M586.02 350.01v28.59c-7.89 0-14.289-6.4-14.289-14.29-.001-7.9 6.399-14.3 14.289-14.3zM586.02 320.06v28.59c-7.89 0-14.289-6.4-14.289-14.29-.001-7.9 6.399-14.3 14.289-14.3zM586.02 290.11v28.59c-7.89 0-14.289-6.4-14.289-14.29-.001-7.9 6.399-14.3 14.289-14.3zM586.02 260.16v28.59c-7.89 0-14.289-6.4-14.289-14.29-.001-7.9 6.399-14.3 14.289-14.3zM571.73 244.5h14.289v14.3c-7.89 0-14.289-6.4-14.289-14.29v-.01zM555.46 230.21c7.9 0 14.29 6.4 14.29 14.29h-28.58c0-7.89 6.4-14.29 14.29-14.29zM555.46 589.62c7.89 0 14.29 6.399 14.29 14.29h-28.58c0-7.89 6.4-14.29 14.29-14.29zM541.17 244.5h28.58c0 7.9-6.39 14.3-14.29 14.3-7.89 0-14.29-6.4-14.29-14.3zM541.17 603.91h28.58c0 7.899-6.4 14.29-14.29 14.29s-14.29-6.39-14.29-14.29zM524.9 230.21c7.899 0 14.29 6.4 14.29 14.29h-28.58c0-7.89 6.4-14.29 14.29-14.29zM524.9 589.62c7.89 0 14.29 6.399 14.29 14.29h-28.58c0-7.89 6.4-14.29 14.29-14.29zM510.61 244.5h28.58c0 7.9-6.391 14.3-14.29 14.3-7.89 0-14.29-6.4-14.29-14.3zM510.61 603.91h28.58c0 7.899-6.4 14.29-14.29 14.29-7.89 0-14.29-6.39-14.29-14.29zM494.34 230.21c7.9 0 14.29 6.4 14.29 14.29h-28.58c0-7.89 6.4-14.29 14.29-14.29zM494.34 589.62c7.9 0 14.29 6.399 14.29 14.29h-28.58c0-7.89 6.4-14.29 14.29-14.29zM480.05 244.5h28.58c0 7.9-6.39 14.3-14.29 14.3-7.89 0-14.29-6.4-14.29-14.3zM480.05 603.91h28.58c0 7.899-6.39 14.29-14.29 14.29-7.89 0-14.29-6.39-14.29-14.29zM463.78 230.21c7.899 0 14.3 6.4 14.3 14.29h-28.59c0-7.89 6.4-14.29 14.29-14.29zM463.78 589.62c7.899 0 14.3 6.399 14.3 14.29h-28.59c0-7.89 6.4-14.29 14.29-14.29zM449.49 244.5h28.59c0 7.9-6.4 14.3-14.3 14.3-7.89 0-14.29-6.4-14.29-14.3zM449.49 603.91h28.59c0 7.899-6.4 14.29-14.3 14.29-7.89 0-14.29-6.39-14.29-14.29zM433.22 230.21c7.9 0 14.3 6.4 14.3 14.29h-28.59c0-7.89 6.4-14.29 14.29-14.29zM433.22 589.62c7.9 0 14.3 6.399 14.3 14.29h-28.59c0-7.89 6.4-14.29 14.29-14.29zM418.93 244.5h28.589c0 7.9-6.399 14.3-14.3 14.3-7.889 0-14.289-6.4-14.289-14.3zM418.93 603.91h28.589c0 7.899-6.399 14.29-14.3 14.29-7.889 0-14.289-6.39-14.289-14.29zM402.67 230.21c7.89 0 14.29 6.4 14.29 14.29h-28.59c0-7.89 6.4-14.29 14.3-14.29zM402.66 589.62c7.9 0 14.3 6.399 14.3 14.29h-28.59c0-7.89 6.4-14.29 14.29-14.29zM388.37 244.5h28.59c0 7.9-6.4 14.3-14.29 14.3-7.9 0-14.3-6.4-14.3-14.3zM388.37 603.91h28.59c0 7.899-6.4 14.29-14.3 14.29-7.89 0-14.29-6.39-14.29-14.29zM372.11 230.21c7.89 0 14.29 6.4 14.29 14.29h-28.59c0-7.89 6.4-14.29 14.3-14.29zM372.11 589.62c7.89 0 14.29 6.399 14.29 14.29h-28.59c0-7.89 6.4-14.29 14.3-14.29zM357.81 244.5h28.59c0 7.9-6.4 14.3-14.29 14.3-7.9 0-14.3-6.4-14.3-14.3zM357.81 603.91h28.59c0 7.899-6.4 14.29-14.29 14.29-7.9 0-14.3-6.39-14.3-14.29zM341.55 230.21c7.89 0 14.29 6.4 14.29 14.29h-28.59c0-7.89 6.4-14.29 14.3-14.29zM341.55 589.62c7.89 0 14.29 6.399 14.29 14.29h-28.59c0-7.89 6.4-14.29 14.3-14.29zM327.25 244.5h28.59c0 7.9-6.4 14.3-14.29 14.3-7.9 0-14.3-6.4-14.3-14.3zM327.25 603.91h28.59c0 7.899-6.4 14.29-14.29 14.29-7.9 0-14.3-6.39-14.3-14.29zM310.99 230.21c7.89 0 14.29 6.4 14.29 14.29H296.7c0-7.89 6.39-14.29 14.29-14.29zM310.99 589.62c7.89 0 14.29 6.399 14.29 14.29H296.7c0-7.89 6.39-14.29 14.29-14.29zM296.7 244.5h28.58c0 7.9-6.4 14.3-14.29 14.3-7.9 0-14.29-6.4-14.29-14.3zM296.7 603.91h28.58c0 7.899-6.4 14.29-14.29 14.29-7.9 0-14.29-6.39-14.29-14.29zM280.43 230.21c7.89 0 14.29 6.4 14.29 14.29h-28.58c0-7.89 6.4-14.29 14.29-14.29zM280.43 589.62c7.89 0 14.29 6.399 14.29 14.29h-28.58c0-7.89 6.39-14.29 14.29-14.29zM266.14 244.5h28.58c0 7.9-6.4 14.3-14.29 14.3-7.89 0-14.29-6.4-14.29-14.3zM266.14 603.91h28.58c0 7.899-6.4 14.29-14.29 14.29-7.9 0-14.29-6.39-14.29-14.29zM249.87 230.21c7.9 0 14.29 6.4 14.29 14.29h-28.58c0-7.89 6.4-14.29 14.29-14.29zM249.87 589.62c7.89 0 14.29 6.399 14.29 14.29h-28.58c0-7.89 6.4-14.29 14.29-14.29zM235.58 244.5h28.58c0 7.9-6.39 14.3-14.29 14.3-7.89 0-14.29-6.4-14.29-14.3zM235.58 603.91h28.58c0 7.899-6.4 14.29-14.29 14.29-7.89 0-14.29-6.39-14.29-14.29zM219.31 230.21c7.9 0 14.29 6.4 14.29 14.29h-14.29v14.3c-7.89 0-14.29-6.4-14.29-14.3 0-7.89 6.4-14.29 14.29-14.29z" fill="#394ea1"/><path d="M233.6 424.21c0 .09 0 .19-.01.28h-14.28v-14.57c7.89 0 14.29 6.39 14.29 14.29z" fill="#444041"/><path d="M219.31 589.62c7.89 0 14.29 6.399 14.29 14.29h-14.29v-14.29zM219.31 244.5h14.29c0 7.9-6.39 14.3-14.29 14.3v-14.3z" fill="#394ea1"/><path d="M219.31 603.91h14.29c0 7.89-6.4 14.29-14.29 14.29s-14.29-6.4-14.29-14.29c0-7.891 6.4-14.29 14.29-14.29v14.29z" fill="#394ea1"/><path d="M219.31 424.49h14.28c-.14 7.76-6.48 14.01-14.28 14.01v-14.01z" fill="#444041"/><path d="M219.31 260.16c7.89 0 14.29 6.4 14.29 14.29 0 7.9-6.4 14.3-14.29 14.3v-28.59zM219.31 290.11c7.89 0 14.29 6.4 14.29 14.3 0 7.89-6.4 14.29-14.29 14.29v-28.59zM219.31 320.06c7.89 0 14.29 6.4 14.29 14.3 0 7.89-6.4 14.29-14.29 14.29v-28.59zM219.31 350.01c7.89 0 14.29 6.4 14.29 14.3 0 7.89-6.4 14.29-14.29 14.29v-28.59zM219.31 469.82c7.89 0 14.29 6.39 14.29 14.29 0 7.89-6.4 14.29-14.29 14.29v-28.58zM219.31 499.77c7.89 0 14.29 6.4 14.29 14.29 0 7.891-6.4 14.29-14.29 14.29v-28.58zM219.31 529.72c7.89 0 14.29 6.4 14.29 14.29 0 7.891-6.4 14.29-14.29 14.29v-28.58zM219.31 559.67c7.89 0 14.29 6.4 14.29 14.29 0 7.9-6.4 14.29-14.29 14.29v-28.58zM219.31 559.67v28.58c-7.89 0-14.29-6.39-14.29-14.29 0-7.89 6.4-14.29 14.29-14.29zM219.31 529.72v28.58c-7.89 0-14.29-6.399-14.29-14.29 0-7.89 6.4-14.29 14.29-14.29zM219.31 499.77v28.58c-7.89 0-14.29-6.399-14.29-14.29 0-7.89 6.4-14.29 14.29-14.29zM219.31 469.82v28.58c-7.89 0-14.29-6.4-14.29-14.29 0-7.9 6.4-14.29 14.29-14.29z" fill="#394ea1"/><path d="M219.31 424.49v14.01c-7.8 0-14.14-6.25-14.28-14.01h14.28zM219.31 409.92v14.57h-14.28c-.01-.09-.01-.19-.01-.28 0-7.9 6.4-14.29 14.29-14.29z" fill="#444041"/><path d="M219.31 350.01v28.59c-7.89 0-14.29-6.4-14.29-14.29 0-7.9 6.4-14.3 14.29-14.3zM219.31 320.06v28.59c-7.89 0-14.29-6.4-14.29-14.29 0-7.9 6.4-14.3 14.29-14.3zM219.31 290.11v28.59c-7.89 0-14.29-6.4-14.29-14.29 0-7.9 6.4-14.3 14.29-14.3zM219.31 260.16v28.59c-7.89 0-14.29-6.4-14.29-14.3 0-7.89 6.4-14.29 14.29-14.29z" fill="#394ea1"/><g fill="none" stroke="#231f20" stroke-width="28"><path d="M80.8 424.49H769.07M632.93 546.27l138.78-122.23-139-122.19"/></g><path fill="none" d="M.25.25h850.394v850.394H.25z"/></svg>

<?xml version="1.0" encoding="iso-8859-1"?>
<!-- Generator: Adobe Illustrator 12.0.1, SVG Export Plug-In . SVG Version: 6.00 Build 51448)  -->
<!DOCTYPE svg PUBLIC "-//W3C//DTD SVG 1.1//EN" "http://www.w3.org/Graphics/SVG/1.1/DTD/svg11.dtd" [
	<!ENTITY ns_svg "http://www.w3.org/2000/svg">
	<!ENTITY ns_xlink "http://www.w3.org/1999/xlink">
]>
<svg  version="1.1" id="Layer_1" xmlns="&ns_svg;" xmlns:xlink="&ns_xlink;" width="850.89" height="850.89"
	 viewBox="0 0 850.89 850.89" style="overflow:visible;enable-background:new 0 0 850.89 850.89;" xml:space="preserve">
<g id="XMLID_2_">
	<g>
		<path style="fill:#444041;" d="M600.31,424.21c0,0.09,0,0.19-0.01,0.28h-14.28v-14.57C593.91,409.92,600.31,416.31,600.31,424.21z
			"/>
		<path style="fill:#444041;" d="M586.02,424.49h14.28c-0.14,7.76-6.479,14.01-14.28,14.01V424.49z"/>
		<path style="fill:#394EA1;" d="M586.02,230.21c7.891,0,14.29,6.4,14.29,14.3c0,7.89-6.399,14.29-14.29,14.29v-14.3H571.73
			C571.74,236.6,578.13,230.21,586.02,230.21z"/>
		<path style="fill:#394EA1;" d="M586.02,260.16c7.891,0,14.29,6.4,14.29,14.3c0,7.89-6.399,14.29-14.29,14.29V260.16z"/>
		<path style="fill:#394EA1;" d="M586.02,290.11c7.891,0,14.29,6.4,14.29,14.3c0,7.89-6.399,14.29-14.29,14.29V290.11z"/>
		<path style="fill:#394EA1;" d="M586.02,320.06c7.891,0,14.29,6.4,14.29,14.3c0,7.89-6.399,14.29-14.29,14.29V320.06z"/>
		<path style="fill:#394EA1;" d="M586.02,350.01c7.891,0,14.29,6.4,14.29,14.3c0,7.89-6.399,14.29-14.29,14.29V350.01z"/>
		<path style="fill:#394EA1;" d="M586.02,469.82c7.891,0,14.29,6.39,14.29,14.29c0,7.89-6.399,14.29-14.29,14.29V469.82z"/>
		<path style="fill:#394EA1;" d="M586.02,499.77c7.891,0,14.29,6.4,14.29,14.29c0,7.9-6.399,14.29-14.29,14.29V499.77z"/>
		<path style="fill:#394EA1;" d="M586.02,529.72c7.891,0,14.29,6.4,14.29,14.29c0,7.9-6.399,14.29-14.29,14.29V529.72z"/>
		<path style="fill:#394EA1;" d="M586.02,559.67c7.891,0,14.29,6.4,14.29,14.29c0,7.9-6.399,14.29-14.29,14.29V559.67z"/>
		<path style="fill:#394EA1;" d="M586.02,589.62c7.891,0,14.29,6.399,14.29,14.29c0,7.899-6.399,14.29-14.29,14.29
			c-7.899,0-14.289-6.391-14.289-14.29h14.289V589.62z"/>
		<path style="fill:#394EA1;" d="M586.02,589.62v14.29H571.73C571.73,596.02,578.12,589.62,586.02,589.62z"/>
		<path style="fill:#394EA1;" d="M586.02,559.67v28.58c-7.89,0-14.289-6.39-14.289-14.29C571.73,566.07,578.13,559.67,586.02,559.67
			z"/>
		<path style="fill:#394EA1;" d="M586.02,529.72v28.58c-7.89,0-14.289-6.39-14.289-14.29C571.73,536.12,578.13,529.72,586.02,529.72
			z"/>
		<path style="fill:#394EA1;" d="M586.02,499.77v28.58c-7.89,0-14.289-6.39-14.289-14.29C571.73,506.17,578.13,499.77,586.02,499.77
			z"/>
		<path style="fill:#394EA1;" d="M586.02,469.82v28.58c-7.89,0-14.289-6.4-14.289-14.29C571.73,476.21,578.13,469.82,586.02,469.82z
			"/>
		<path style="fill:#444041;" d="M586.02,424.49v14.01c-7.8,0-14.14-6.25-14.279-14.01H586.02z"/>
		<path style="fill:#444041;" d="M586.02,409.92v14.57H571.74c-0.01-0.09-0.01-0.19-0.01-0.28
			C571.73,416.31,578.13,409.92,586.02,409.92z"/>
		<path style="fill:#394EA1;" d="M586.02,350.01v28.59c-7.89,0-14.289-6.4-14.289-14.29C571.73,356.41,578.13,350.01,586.02,350.01z
			"/>
		<path style="fill:#394EA1;" d="M586.02,320.06v28.59c-7.89,0-14.289-6.4-14.289-14.29C571.73,326.46,578.13,320.06,586.02,320.06z
			"/>
		<path style="fill:#394EA1;" d="M586.02,290.11v28.59c-7.89,0-14.289-6.4-14.289-14.29C571.73,296.51,578.13,290.11,586.02,290.11z
			"/>
		<path style="fill:#394EA1;" d="M586.02,260.16v28.59c-7.89,0-14.289-6.4-14.289-14.29C571.73,266.56,578.13,260.16,586.02,260.16z
			"/>
		<path style="fill:#394EA1;" d="M571.73,244.5h14.289v14.3c-7.89,0-14.289-6.4-14.289-14.29V244.5z"/>
		<path style="fill:#394EA1;" d="M555.46,230.21c7.9,0,14.29,6.4,14.29,14.29h-28.58C541.17,236.61,547.57,230.21,555.46,230.21z"/>
		<path style="fill:#394EA1;" d="M555.46,589.62c7.89,0,14.29,6.399,14.29,14.29h-28.58C541.17,596.02,547.57,589.62,555.46,589.62z
			"/>
		<path style="fill:#394EA1;" d="M541.17,244.5h28.58c0,7.9-6.39,14.3-14.29,14.3C547.57,258.8,541.17,252.4,541.17,244.5z"/>
		<path style="fill:#394EA1;" d="M541.17,603.91h28.58c0,7.899-6.4,14.29-14.29,14.29S541.17,611.81,541.17,603.91z"/>
		<path style="fill:#394EA1;" d="M524.9,230.21c7.899,0,14.29,6.4,14.29,14.29h-28.58C510.61,236.61,517.01,230.21,524.9,230.21z"/>
		<path style="fill:#394EA1;" d="M524.9,589.62c7.89,0,14.29,6.399,14.29,14.29h-28.58C510.61,596.02,517.01,589.62,524.9,589.62z"
			/>
		<path style="fill:#394EA1;" d="M510.61,244.5h28.58c0,7.9-6.391,14.3-14.29,14.3C517.01,258.8,510.61,252.4,510.61,244.5z"/>
		<path style="fill:#394EA1;" d="M510.61,603.91h28.58c0,7.899-6.4,14.29-14.29,14.29C517.01,618.2,510.61,611.81,510.61,603.91z"/>
		<path style="fill:#394EA1;" d="M494.34,230.21c7.9,0,14.29,6.4,14.29,14.29h-28.58C480.05,236.61,486.45,230.21,494.34,230.21z"/>
		<path style="fill:#394EA1;" d="M494.34,589.62c7.9,0,14.29,6.399,14.29,14.29h-28.58C480.05,596.02,486.45,589.62,494.34,589.62z"
			/>
		<path style="fill:#394EA1;" d="M480.05,244.5h28.58c0,7.9-6.39,14.3-14.29,14.3C486.45,258.8,480.05,252.4,480.05,244.5z"/>
		<path style="fill:#394EA1;" d="M480.05,603.91h28.58c0,7.899-6.39,14.29-14.29,14.29C486.45,618.2,480.05,611.81,480.05,603.91z"
			/>
		<path style="fill:#394EA1;" d="M463.78,230.21c7.899,0,14.3,6.4,14.3,14.29h-28.59C449.49,236.61,455.89,230.21,463.78,230.21z"/>
		<path style="fill:#394EA1;" d="M463.78,589.62c7.899,0,14.3,6.399,14.3,14.29h-28.59C449.49,596.02,455.89,589.62,463.78,589.62z"
			/>
		<path style="fill:#394EA1;" d="M449.49,244.5h28.59c0,7.9-6.4,14.3-14.3,14.3C455.89,258.8,449.49,252.4,449.49,244.5z"/>
		<path style="fill:#394EA1;" d="M449.49,603.91h28.59c0,7.899-6.4,14.29-14.3,14.29C455.89,618.2,449.49,611.81,449.49,603.91z"/>
		<path style="fill:#394EA1;" d="M433.22,230.21c7.9,0,14.3,6.4,14.3,14.29H418.93C418.93,236.61,425.33,230.21,433.22,230.21z"/>
		<path style="fill:#394EA1;" d="M433.22,589.62c7.9,0,14.3,6.399,14.3,14.29H418.93C418.93,596.02,425.33,589.62,433.22,589.62z"/>
		<path style="fill:#394EA1;" d="M418.93,244.5h28.589c0,7.9-6.399,14.3-14.3,14.3C425.33,258.8,418.93,252.4,418.93,244.5z"/>
		<path style="fill:#394EA1;" d="M418.93,603.91h28.589c0,7.899-6.399,14.29-14.3,14.29C425.33,618.2,418.93,611.81,418.93,603.91z"
			/>
		<path style="fill:#394EA1;" d="M402.67,230.21c7.89,0,14.29,6.4,14.29,14.29h-28.59C388.37,236.61,394.77,230.21,402.67,230.21z"
			/>
		<path style="fill:#394EA1;" d="M402.66,589.62c7.9,0,14.3,6.399,14.3,14.29h-28.59C388.37,596.02,394.77,589.62,402.66,589.62z"/>
		<path style="fill:#394EA1;" d="M388.37,244.5h28.59c0,7.9-6.4,14.3-14.29,14.3C394.77,258.8,388.37,252.4,388.37,244.5z"/>
		<path style="fill:#394EA1;" d="M388.37,603.91h28.59c0,7.899-6.4,14.29-14.3,14.29C394.77,618.2,388.37,611.81,388.37,603.91z"/>
		<path style="fill:#394EA1;" d="M372.11,230.21c7.89,0,14.29,6.4,14.29,14.29h-28.59C357.81,236.61,364.21,230.21,372.11,230.21z"
			/>
		<path style="fill:#394EA1;" d="M372.11,589.62c7.89,0,14.29,6.399,14.29,14.29h-28.59C357.81,596.02,364.21,589.62,372.11,589.62z
			"/>
		<path style="fill:#394EA1;" d="M357.81,244.5h28.59c0,7.9-6.4,14.3-14.29,14.3C364.21,258.8,357.81,252.4,357.81,244.5z"/>
		<path style="fill:#394EA1;" d="M357.81,603.91h28.59c0,7.899-6.4,14.29-14.29,14.29C364.21,618.2,357.81,611.81,357.81,603.91z"/>
		<path style="fill:#394EA1;" d="M341.55,230.21c7.89,0,14.29,6.4,14.29,14.29h-28.59C327.25,236.61,333.65,230.21,341.55,230.21z"
			/>
		<path style="fill:#394EA1;" d="M341.55,589.62c7.89,0,14.29,6.399,14.29,14.29h-28.59C327.25,596.02,333.65,589.62,341.55,589.62z
			"/>
		<path style="fill:#394EA1;" d="M327.25,244.5h28.59c0,7.9-6.4,14.3-14.29,14.3C333.65,258.8,327.25,252.4,327.25,244.5z"/>
		<path style="fill:#394EA1;" d="M327.25,603.91h28.59c0,7.899-6.4,14.29-14.29,14.29C333.65,618.2,327.25,611.81,327.25,603.91z"/>
		<path style="fill:#394EA1;" d="M310.99,230.21c7.89,0,14.29,6.4,14.29,14.29H296.7C296.7,236.61,303.09,230.21,310.99,230.21z"/>
		<path style="fill:#394EA1;" d="M310.99,589.62c7.89,0,14.29,6.399,14.29,14.29H296.7C296.7,596.02,303.09,589.62,310.99,589.62z"
			/>
		<path style="fill:#394EA1;" d="M296.7,244.5h28.58c0,7.9-6.4,14.3-14.29,14.3C303.09,258.8,296.7,252.4,296.7,244.5z"/>
		<path style="fill:#394EA1;" d="M296.7,603.91h28.58c0,7.899-6.4,14.29-14.29,14.29C303.09,618.2,296.7,611.81,296.7,603.91z"/>
		<path style="fill:#394EA1;" d="M280.43,230.21c7.89,0,14.29,6.4,14.29,14.29h-28.58C266.14,236.61,272.54,230.21,280.43,230.21z"
			/>
		<path style="fill:#394EA1;" d="M280.43,589.62c7.89,0,14.29,6.399,14.29,14.29h-28.58C266.14,596.02,272.53,589.62,280.43,589.62z
			"/>
		<path style="fill:#394EA1;" d="M266.14,244.5h28.58c0,7.9-6.4,14.3-14.29,14.3C272.54,258.8,266.14,252.4,266.14,244.5z"/>
		<path style="fill:#394EA1;" d="M266.14,603.91h28.58c0,7.899-6.4,14.29-14.29,14.29C272.53,618.2,266.14,611.81,266.14,603.91z"/>
		<path style="fill:#394EA1;" d="M249.87,230.21c7.9,0,14.29,6.4,14.29,14.29h-28.58C235.58,236.61,241.98,230.21,249.87,230.21z"/>
		<path style="fill:#394EA1;" d="M249.87,589.62c7.89,0,14.29,6.399,14.29,14.29h-28.58C235.58,596.02,241.98,589.62,249.87,589.62z
			"/>
		<path style="fill:#394EA1;" d="M235.58,244.5h28.58c0,7.9-6.39,14.3-14.29,14.3C241.98,258.8,235.58,252.4,235.58,244.5z"/>
		<path style="fill:#394EA1;" d="M235.58,603.91h28.58c0,7.899-6.4,14.29-14.29,14.29C241.98,618.2,235.58,611.81,235.58,603.91z"/>
		<path style="fill:#394EA1;" d="M219.31,230.21c7.9,0,14.29,6.4,14.29,14.29h-14.29v14.3c-7.89,0-14.29-6.4-14.29-14.3
			C205.02,236.61,211.42,230.21,219.31,230.21z"/>
		<path style="fill:#444041;" d="M233.6,424.21c0,0.09,0,0.19-0.01,0.28h-14.28v-14.57C227.2,409.92,233.6,416.31,233.6,424.21z"/>
		<path style="fill:#394EA1;" d="M219.31,589.62c7.89,0,14.29,6.399,14.29,14.29h-14.29V589.62z"/>
		<path style="fill:#394EA1;" d="M219.31,244.5h14.29c0,7.9-6.39,14.3-14.29,14.3V244.5z"/>
		<path style="fill:#394EA1;" d="M219.31,603.91h14.29c0,7.89-6.4,14.29-14.29,14.29s-14.29-6.4-14.29-14.29
			c0-7.891,6.4-14.29,14.29-14.29V603.91z"/>
		<path style="fill:#444041;" d="M219.31,424.49h14.28c-0.14,7.76-6.48,14.01-14.28,14.01V424.49z"/>
		<path style="fill:#394EA1;" d="M219.31,260.16c7.89,0,14.29,6.4,14.29,14.29c0,7.9-6.4,14.3-14.29,14.3V260.16z"/>
		<path style="fill:#394EA1;" d="M219.31,290.11c7.89,0,14.29,6.4,14.29,14.3c0,7.89-6.4,14.29-14.29,14.29V290.11z"/>
		<path style="fill:#394EA1;" d="M219.31,320.06c7.89,0,14.29,6.4,14.29,14.3c0,7.89-6.4,14.29-14.29,14.29V320.06z"/>
		<path style="fill:#394EA1;" d="M219.31,350.01c7.89,0,14.29,6.4,14.29,14.3c0,7.89-6.4,14.29-14.29,14.29V350.01z"/>
		<path style="fill:#394EA1;" d="M219.31,469.82c7.89,0,14.29,6.39,14.29,14.29c0,7.89-6.4,14.29-14.29,14.29V469.82z"/>
		<path style="fill:#394EA1;" d="M219.31,499.77c7.89,0,14.29,6.4,14.29,14.29c0,7.891-6.4,14.29-14.29,14.29V499.77z"/>
		<path style="fill:#394EA1;" d="M219.31,529.72c7.89,0,14.29,6.4,14.29,14.29c0,7.891-6.4,14.29-14.29,14.29V529.72z"/>
		<path style="fill:#394EA1;" d="M219.31,559.67c7.89,0,14.29,6.4,14.29,14.29c0,7.9-6.4,14.29-14.29,14.29V559.67z"/>
		<path style="fill:#394EA1;" d="M219.31,559.67v28.58c-7.89,0-14.29-6.39-14.29-14.29C205.02,566.07,211.42,559.67,219.31,559.67z"
			/>
		<path style="fill:#394EA1;" d="M219.31,529.72v28.58c-7.89,0-14.29-6.399-14.29-14.29C205.02,536.12,211.42,529.72,219.31,529.72z
			"/>
		<path style="fill:#394EA1;" d="M219.31,499.77v28.58c-7.89,0-14.29-6.399-14.29-14.29C205.02,506.17,211.42,499.77,219.31,499.77z
			"/>
		<path style="fill:#394EA1;" d="M219.31,469.82v28.58c-7.89,0-14.29-6.4-14.29-14.29C205.02,476.21,211.42,469.82,219.31,469.82z"
			/>
		<path style="fill:#444041;" d="M219.31,424.49v14.01c-7.8,0-14.14-6.25-14.28-14.01H219.31z"/>
		<path style="fill:#444041;" d="M219.31,409.92v14.57h-14.28c-0.01-0.09-0.01-0.19-0.01-0.28
			C205.02,416.31,211.42,409.92,219.31,409.92z"/>
		<path style="fill:#394EA1;" d="M219.31,350.01v28.59c-7.89,0-14.29-6.4-14.29-14.29C205.02,356.41,211.42,350.01,219.31,350.01z"
			/>
		<path style="fill:#394EA1;" d="M219.31,320.06v28.59c-7.89,0-14.29-6.4-14.29-14.29C205.02,326.46,211.42,320.06,219.31,320.06z"
			/>
		<path style="fill:#394EA1;" d="M219.31,290.11v28.59c-7.89,0-14.29-6.4-14.29-14.29C205.02,296.51,211.42,290.11,219.31,290.11z"
			/>
		<path style="fill:#394EA1;" d="M219.31,260.16v28.59c-7.89,0-14.29-6.4-14.29-14.3C205.02,266.56,211.42,260.16,219.31,260.16z"/>
	</g>
	<g>
		<polyline style="fill:none;stroke:#231F20;stroke-width:28;" points="80.8,424.49 205.03,424.49 219.31,424.49 233.59,424.49 
			571.74,424.49 586.02,424.49 600.3,424.49 769.07,424.49 		"/>
		<polyline style="fill:none;stroke:#231F20;stroke-width:28;" points="632.93,546.27 771.71,424.04 632.71,301.85 		"/>
	</g>
</g>
<rect x="0.25" y="0.25" style="fill:none;" width="850.394" height="850.394"/>
</svg>
